X: 151410
T: Old Tipperary
T: Sean Tiobraid \'Arann
S: B.Breathnach: "Ceol Rince na hEireann" II/23 
Z: B.Black
L: 1/8
M: 6/8
R: jig
K: G
d|cAF GGG|AGF DFA|cAF GGG|Ace fed|
cAF GGG|AGF Dde|fed edc|Ad/d/d cAd|
cAF GFG|AGF DFA|cAF GGG|Ace fed|
cAF GFG|AGF Dde|f2d e2 d/c/|Ad/d/d cAF||
GBd ggg|agf g2f|def ggg|fag fga|
bag agf|geg fed|cAB cde|fed cAF :|
